X: 1
T: Gan Ainm
M: 2/4
L: 1/8
R: polka
K: Dmaj
f/g/|aa/b/ ag|gg/a/ ge|fd gf|e/d/c/B/ Ad/c/|
B/G/B/d/ g/f/e/d/|c/A/c/e/ a/g/f/e/|f/g/f/d/ e/f/e/c/|dA D:|
|:z|f/e/d/B/ A/B/d/e/|f/e/d/B/ A/B/d/e/|ee ed/e/|fe e2|
f/e/d/B/ A/B/d/e/|f/e/d/B/ A/B/d/e/|ee ea/f/|dA d:|
